X: 19
M:3/4
L:1/8
K:G
"Andantino expressivo"AB|c4 B2|A2 G2 AB|{d}c4 B2|A4 GA|B4 A2|G2 E>D E>G|
g2 dB cA|G4 AB|c4 B2|A2 G2 AB|c4B2|A4 B2|cB cd eg|
a4 g2|ed B2 dB|A4||AB c4 B2|A2 G2 AB|c2 Be dc|A4 GA|
(3egf (3gfe (3dcB|A4||

